X: 1
T: Mouth of the Tobique #1
R: reel
Z: 1997 by John Chambers <jc:trillian.mit.edu>
N: < Donna Hinds < Graham Townsend < Don Messer
M: C|
L: 1/8
K: G
|: (3DEF | "G"GFGA Bded | BdBG DGBG | "D7"AGFE DFAc |1,3 "G"BdBG "D7"D2 :|2,4 "G"BG2G G2 :|
|: ef | "G"gfga gfeg | "D7"fdAd fagf | "C"ecAF "D7"DFAc |1,3 "G"BGBc "D7"d2 :|2,4 "G"BG2G G2 :|
